packages/icons/src/tasSwapRollback.svg

<svg  viewBox="0 0 33 33" fill="none" xmlns="http://www.w3.org/2000/svg">
<path d="M21.6229 5.46729L26.2891 8.96261M26.2891 8.96261L21.6229 12.4673M26.2891 8.96261H16.7891H7.28906" stroke="#0278D5" stroke-linecap="round" stroke-linejoin="round"/>
<path d="M11.9552 14.6177L7.28906 18.113M7.28906 18.113L11.9552 21.6177M7.28906 18.113H16.7891H26.2891" stroke="#0278D5" stroke-linecap="round" stroke-linejoin="round"/>
<path d="M28.862 31.4291H25.4523C25.3857 31.4296 25.3199 31.4149 25.2599 31.3862C25.1998 31.3575 25.1471 31.3154 25.1058 31.2632L22.9407 28.5542C22.8982 28.5009 22.8685 28.4386 22.854 28.372C22.8394 28.3055 22.8404 28.2365 22.8569 28.1703L23.6804 24.8538C23.6963 24.7916 23.7253 24.7335 23.7654 24.6833C23.8056 24.6332 23.856 24.5922 23.9133 24.5632L26.9652 23.0335C27.0266 23.0031 27.0942 22.9873 27.1627 22.9873C27.2312 22.9873 27.2988 23.0031 27.3602 23.0335L30.4513 24.565C30.5099 24.5935 30.5614 24.6346 30.6021 24.6856C30.6427 24.7365 30.6714 24.7959 30.686 24.8594L31.4723 28.1759C31.4867 28.2405 31.4865 28.3075 31.4717 28.372C31.4568 28.4364 31.4278 28.4968 31.3866 28.5486L29.2067 31.2651C29.1651 31.3165 29.1126 31.3579 29.0529 31.3863C28.9933 31.4146 28.928 31.4293 28.862 31.4291ZM25.4523 30.9726H28.8545L31.0251 28.2728L30.2426 24.9694L27.1646 23.4453L24.1238 24.9694L23.3022 28.2747L25.4523 30.9726Z" fill="#238FCF"/>
<path d="M31.0816 23.954L31.4692 23.6354L27.3906 21.6157V22.1262L31.0816 23.954Z" fill="#1BBFD3"/>
<path d="M22.1361 28.6997L21.6387 28.8096L24.4838 32.3795L24.7074 31.9268L22.1361 28.6997Z" fill="#79BF43"/>
<path d="M26.9327 22.1282V21.6177L22.9082 23.6355L23.2846 23.9597L26.9327 22.1282Z" fill="#1BBFD3"/>
<path d="M23.0129 24.3284L22.6253 23.9949L21.5391 28.3622L22.0384 28.2523L23.0129 24.3284Z" fill="#1D4489"/>
<path d="M32.291 28.2541L32.7884 28.3641L31.7544 23.9949L31.3594 24.3191L32.291 28.2541Z" fill="#1D4489"/>
<path d="M32.189 28.6997L29.5898 31.9324L29.8116 32.3851L32.6865 28.8096L32.189 28.6997Z" fill="#79BF43"/>
<path d="M25.1181 32.1243L24.8945 32.5826H29.3979L29.1743 32.1243H25.1181Z" fill="#1BBFD3"/>
</svg>

<svg viewBox="0 0 33 33" fill="none" xmlns="http://www.w3.org/2000/svg"><path d="m21.623 5.467 4.666 3.496m0 0-4.666 3.504m4.666-3.504h-19M11.955 14.618 7.29 18.113m0 0 4.666 3.505M7.29 18.113h19" stroke="#0278D5" stroke-linecap="round" stroke-linejoin="round"/><path d="M28.862 31.43h-3.41a.438.438 0 0 1-.346-.167l-2.165-2.709a.444.444 0 0 1-.084-.384l.823-3.316a.453.453 0 0 1 .233-.29l3.052-1.53a.445.445 0 0 1 .395 0l3.091 1.531a.438.438 0 0 1 .235.294l.786 3.317a.444.444 0 0 1-.085.373l-2.18 2.716a.442.442 0 0 1-.345.164Zm-3.41-.457h3.402l2.171-2.7-.782-3.304-3.078-1.524-3.041 1.524-.822 3.306 2.15 2.698Z" fill="#238FCF"/><path d="m31.082 23.954.387-.319-4.078-2.02v.511l3.69 1.828Z" fill="#1BBFD3"/><path d="m22.136 28.7-.497.11 2.845 3.57.223-.453-2.57-3.227Z" fill="#79BF43"/><path d="M26.933 22.128v-.51l-4.025 2.018.377.324 3.648-1.832Z" fill="#1BBFD3"/><path d="m23.013 24.328-.388-.333-1.086 4.367.5-.11.974-3.924ZM32.291 28.254l.497.11-1.034-4.37-.395.325.932 3.935Z" fill="#1D4489"/><path d="m32.189 28.7-2.6 3.232.223.453 2.875-3.575-.498-.11Z" fill="#79BF43"/><path d="m25.118 32.124-.223.459h4.503l-.224-.459h-4.056Z" fill="#1BBFD3"/></svg>
